img/logo-white.svg

<svg width="132" height="32" viewBox="0 0 132 32" fill="none" xmlns="http://www.w3.org/2000/svg">
<path d="M37.9554 25.5867C37.1039 25.5867 36.4227 25.3261 35.9118 24.805C35.4198 24.2839 35.1738 23.5892 35.1738 22.7207V13.8331V11.3145V6.5957H38.0973V11.3145H42.2697V13.8331H38.0973V22.1996C38.0973 22.7786 38.3623 23.0681 38.8921 23.0681H41.8156V25.5867H37.9554Z" fill="white"/>
<path d="M49.4914 25.992C48.0911 25.992 46.8423 25.7025 45.7448 25.1235C44.6662 24.5252 43.8147 23.676 43.1902 22.5759C42.5658 21.4758 42.2536 20.1731 42.2536 18.6677V18.2335C42.2536 16.7281 42.5658 15.435 43.1902 14.3542C43.8147 13.2541 44.6662 12.4049 45.7448 11.8066C46.8423 11.2083 48.0911 10.9092 49.4914 10.9092C50.8917 10.9092 52.1405 11.2083 53.238 11.8066C54.3355 12.4049 55.1965 13.2541 55.821 14.3542C56.4454 15.435 56.7576 16.7281 56.7576 18.2335V18.6677C56.7576 20.1731 56.4454 21.4758 55.821 22.5759C55.1965 23.676 54.3355 24.5252 53.238 25.1235C52.1405 25.7025 50.8917 25.992 49.4914 25.992ZM49.4914 23.3286C50.7781 23.3286 51.8189 22.9137 52.6136 22.0838C53.4273 21.2346 53.8341 20.0669 53.8341 18.5809V18.3203C53.8341 16.8342 53.4367 15.6762 52.642 14.8464C51.8472 13.9972 50.797 13.5726 49.4914 13.5726C48.2236 13.5726 47.1829 13.9972 46.3692 14.8464C45.5744 15.6762 45.1771 16.8342 45.1771 18.3203V18.5809C45.1771 20.0669 45.5744 21.2346 46.3692 22.0838C47.1829 22.9137 48.2236 23.3286 49.4914 23.3286Z" fill="white"/>
<path d="M58.1267 28.2398V11.3145H60.9934V13.3699H61.4476C61.8071 12.733 62.3464 12.1637 63.0654 11.6619C63.8034 11.1601 64.8536 10.9092 66.216 10.9092C67.3892 10.9092 68.4583 11.1987 69.4234 11.7777C70.4074 12.3567 71.1926 13.1962 71.7792 14.2963C72.3848 15.3771 72.6875 16.6895 72.6875 18.2335V18.6677C72.6875 20.2117 72.3942 21.5337 71.8076 22.6338C71.221 23.7146 70.4357 24.5445 69.4518 25.1235C68.4678 25.7025 67.3892 25.992 66.216 25.992C65.3078 25.992 64.5414 25.8762 63.917 25.6446C63.2925 25.413 62.7911 25.1235 62.4126 24.7761C62.0342 24.4094 61.7314 24.033 61.5043 23.6471H61.0502V28.2398H58.1267ZM65.3645 23.3865C66.6513 23.3865 67.7015 22.9716 68.5151 22.1417C69.3288 21.3118 69.7356 20.1248 69.7356 18.5809V18.3203C69.7356 16.7956 69.3193 15.6183 68.4867 14.7885C67.6731 13.9586 66.6323 13.5436 65.3645 13.5436C64.1156 13.5436 63.0749 13.9586 62.2423 14.7885C61.4287 15.6183 61.0218 16.7956 61.0218 18.3203V18.5809C61.0218 20.1248 61.4287 21.3118 62.2423 22.1417C63.0749 22.9716 64.1156 23.3865 65.3645 23.3865Z" fill="white"/>
<path d="M80.0821 25.992C78.3033 25.992 76.8274 25.5867 75.6542 24.7761C74.481 23.9655 73.762 22.74 73.497 21.0995L76.2219 20.4336C76.3733 21.2249 76.6287 21.8522 76.9882 22.3154C77.3478 22.7786 77.7924 23.1067 78.3223 23.2997C78.871 23.4927 79.4576 23.5892 80.0821 23.5892C81.0093 23.5892 81.7188 23.4058 82.2108 23.0391C82.7217 22.6724 82.9772 22.1996 82.9772 21.6206C82.9772 21.0416 82.7407 20.617 82.2676 20.3468C81.7945 20.0766 81.0944 19.8546 80.1672 19.6809L79.2022 19.5073C78.256 19.3336 77.3951 19.0827 76.6192 18.7546C75.8434 18.4265 75.2284 17.9729 74.7743 17.3939C74.3202 16.8149 74.0931 16.0719 74.0931 15.1648C74.0931 13.8138 74.5851 12.7716 75.569 12.0382C76.553 11.2855 77.8587 10.9092 79.486 10.9092C81.0566 10.9092 82.3433 11.2759 83.3462 12.0093C84.368 12.7234 85.0303 13.698 85.333 14.9332L82.6082 15.7148C82.4379 14.8464 82.0784 14.2384 81.5296 13.891C80.9809 13.5243 80.2997 13.341 79.486 13.341C78.6913 13.341 78.0668 13.4954 77.6127 13.8042C77.1585 14.0937 76.9315 14.5086 76.9315 15.049C76.9315 15.628 77.1491 16.0526 77.5843 16.3228C78.0384 16.593 78.644 16.7956 79.4008 16.9307L80.3943 17.1044C81.3972 17.2781 82.3149 17.5194 83.1475 17.8282C83.9801 18.137 84.6329 18.5809 85.106 19.1599C85.5979 19.7388 85.8439 20.5108 85.8439 21.4758C85.8439 22.904 85.3236 24.0138 84.2828 24.805C83.2421 25.5963 81.8418 25.992 80.0821 25.992Z" fill="white"/>
<path d="M90.0809 25.5867C89.2293 25.5867 88.5481 25.3261 88.0372 24.805C87.5453 24.2839 87.2993 23.5892 87.2993 22.7207V13.8331V11.3145V6.5957H90.2228V11.3145H94.3952V13.8331H90.2228V22.1996C90.2228 22.7786 90.4877 23.0681 91.0175 23.0681H93.941V25.5867H90.0809Z" fill="white"/>
<path d="M101.617 25.992C100.217 25.992 98.9677 25.7025 97.8702 25.1235C96.7916 24.5252 95.9401 23.676 95.3157 22.5759C94.6912 21.4758 94.379 20.1731 94.379 18.6677V18.2335C94.379 16.7281 94.6912 15.435 95.3157 14.3542C95.9401 13.2541 96.7916 12.4049 97.8702 11.8066C98.9677 11.2083 100.217 10.9092 101.617 10.9092C103.017 10.9092 104.266 11.2083 105.363 11.8066C106.461 12.4049 107.322 13.2541 107.946 14.3542C108.571 15.435 108.883 16.7281 108.883 18.2335V18.6677C108.883 20.1731 108.571 21.4758 107.946 22.5759C107.322 23.676 106.461 24.5252 105.363 25.1235C104.266 25.7025 103.017 25.992 101.617 25.992ZM101.617 23.3286C102.904 23.3286 103.944 22.9137 104.739 22.0838C105.553 21.2346 105.96 20.0669 105.96 18.5809V18.3203C105.96 16.8342 105.562 15.6762 104.767 14.8464C103.973 13.9972 102.922 13.5726 101.617 13.5726C100.349 13.5726 99.3083 13.9972 98.4946 14.8464C97.6999 15.6762 97.3025 16.8342 97.3025 18.3203V18.5809C97.3025 20.0669 97.6999 21.2346 98.4946 22.0838C99.3083 22.9137 100.349 23.3286 101.617 23.3286Z" fill="white"/>
<path d="M110.252 25.5867V11.3145H113.119V12.9936H113.573C113.8 12.3953 114.16 11.961 114.652 11.6908C115.162 11.4013 115.787 11.2566 116.525 11.2566H118.2V13.9489H116.411C115.465 13.9489 114.689 14.2191 114.084 14.7595C113.478 15.2806 113.176 16.0912 113.176 17.1913V25.5867H110.252Z" fill="white"/>
<path d="M125.279 25.992C123.859 25.992 122.62 25.6928 121.56 25.0945C120.501 24.4769 119.668 23.6181 119.062 22.518C118.476 21.3986 118.183 20.1055 118.183 18.6388V18.2914C118.183 16.8053 118.476 15.5122 119.062 14.4121C119.649 13.2927 120.463 12.4339 121.503 11.8356C122.563 11.218 123.784 10.9092 125.165 10.9092C126.508 10.9092 127.682 11.218 128.685 11.8356C129.706 12.4339 130.501 13.2734 131.069 14.3542C131.636 15.435 131.92 16.6991 131.92 18.1466V19.2757H121.163C121.201 20.5301 121.608 21.5337 122.383 22.2864C123.178 23.0198 124.162 23.3865 125.335 23.3865C126.433 23.3865 127.256 23.1356 127.805 22.6338C128.372 22.132 128.808 21.553 129.11 20.8968L131.523 22.1706C131.258 22.711 130.87 23.2804 130.359 23.8786C129.867 24.4769 129.214 24.9787 128.401 25.384C127.587 25.7893 126.546 25.992 125.279 25.992ZM121.191 16.9886H128.94C128.864 15.9078 128.486 15.0683 127.805 14.47C127.123 13.8524 126.234 13.5436 125.137 13.5436C124.039 13.5436 123.14 13.8524 122.44 14.47C121.759 15.0683 121.343 15.9078 121.191 16.9886Z" fill="white"/>
<path fill-rule="evenodd" clip-rule="evenodd" d="M23.1387 25.716L26.6083 25.716C27.4724 25.716 28.1729 25.0155 28.1729 24.1514L28.1729 12.9851C28.1729 10.8494 27.2998 8.80668 25.7563 7.33077L18.0897 0L10.4183 7.33075C8.87375 8.80676 8 10.8503 8 12.9867L8 24.1514C8 25.0155 8.70048 25.716 9.56459 25.7161L13.0448 25.7162L13.0601 25.7016L11.8747 22.8227L10.8934 22.8227L10.8935 12.7744C10.8935 11.5637 11.3886 10.4057 12.2638 9.56933L18.0891 4.00273L23.9101 9.56872C24.7847 10.4051 25.2795 11.5626 25.2795 12.7728L25.2794 22.8226H24.2891L24.2792 22.8131L23.1387 25.716ZM18.1089 7.21215L21.9962 10.6973C22.6031 11.2414 22.9499 12.018 22.9499 12.8331L22.9499 15.5704L19.4871 12.3963V15.8925L18.0516 14.6065L16.616 15.8925V12.4493L13.1443 15.5785L13.1443 13.019C13.1443 12.2141 13.4824 11.4463 14.0762 10.9029L18.1089 7.21215Z" fill="white"/>
<path fill-rule="evenodd" clip-rule="evenodd" d="M23.1387 25.716L26.6083 25.716C27.4724 25.716 28.1729 25.0155 28.1729 24.1514L28.1729 12.9851C28.1729 10.8494 27.2998 8.80668 25.7563 7.33077L18.0897 0L10.4183 7.33075C8.87375 8.80676 8 10.8503 8 12.9867L8 24.1514C8 25.0155 8.70048 25.716 9.56459 25.7161L13.0448 25.7162L13.0601 25.7016L11.8747 22.8227L10.8934 22.8227L10.8935 12.7744C10.8935 11.5637 11.3886 10.4057 12.2638 9.56933L18.0891 4.00273L23.9101 9.56872C24.7847 10.4051 25.2795 11.5626 25.2795 12.7728L25.2794 22.8226H24.2891L24.2792 22.8131L23.1387 25.716ZM18.1089 7.21215L21.9962 10.6973C22.6031 11.2414 22.9499 12.018 22.9499 12.8331L22.9499 15.5704L19.4871 12.3963V15.8925L18.0516 14.6065L16.616 15.8925V12.4493L13.1443 15.5785L13.1443 13.019C13.1443 12.2141 13.4824 11.4463 14.0762 10.9029L18.1089 7.21215Z" fill="url(#paint0_linear_14_107)"/>
<path d="M21.9964 10.6976L18.1091 7.2124L14.0764 10.9032C13.4827 11.4466 13.1445 12.2144 13.1445 13.0192L13.1445 15.5787L16.6162 12.4495V15.8927L18.0518 14.6068L19.4874 15.8927V12.3965L22.9501 15.5706L22.9501 12.8334C22.9501 12.0183 22.6033 11.2417 21.9964 10.6976Z" fill="url(#paint1_linear_14_107)"/>
<path fill-rule="evenodd" clip-rule="evenodd" d="M18.0877 20.9122L23.1293 25.7163H23.1386L24.2785 22.8147L18.0883 16.916L11.8856 22.823L11.8745 22.823L13.0594 25.7007L18.0877 20.9122Z" fill="url(#paint2_radial_14_107)"/>
<defs>
<linearGradient id="paint0_linear_14_107" x1="18.1701" y1="0.0766527" x2="18.172" y2="21.8511" gradientUnits="userSpaceOnUse">
<stop offset="0.244792" stop-color="#F81B5D"/>
<stop offset="1" stop-color="#FF782C"/>
</linearGradient>
<linearGradient id="paint1_linear_14_107" x1="18.0473" y1="7.2124" x2="18.0473" y2="15.8927" gradientUnits="userSpaceOnUse">
<stop stop-color="#FF782C"/>
<stop offset="1" stop-color="#DF1A62"/>
</linearGradient>
<radialGradient id="paint2_radial_14_107" cx="0" cy="0" r="1" gradientUnits="userSpaceOnUse" gradientTransform="translate(17.7788 17.0272) rotate(88.9191) scale(6.91168 9.74188)">
<stop stop-color="#DC1166"/>
<stop offset="1" stop-color="#FF782C"/>
</radialGradient>
</defs>
</svg>

<svg width="132" height="32" fill="none" xmlns="http://www.w3.org/2000/svg"><path d="M37.955 25.587c-.851 0-1.532-.26-2.043-.782-.492-.521-.738-1.216-.738-2.084V6.595h2.923v4.72h4.173v2.518h-4.173V22.2c0 .579.265.868.795.868h2.924v2.519h-3.86Zm11.536.405c-1.4 0-2.649-.29-3.746-.869a6.545 6.545 0 0 1-2.555-2.547c-.624-1.1-.936-2.403-.936-3.908v-.434c0-1.506.312-2.799.936-3.88a6.545 6.545 0 0 1 2.555-2.547c1.097-.599 2.346-.898 3.746-.898s2.65.3 3.747.898a6.493 6.493 0 0 1 2.583 2.547c.624 1.081.937 2.374.937 3.88v.434c0 1.505-.313 2.808-.937 3.908a6.493 6.493 0 0 1-2.583 2.547c-1.097.58-2.346.869-3.747.869Zm0-2.663c1.287 0 2.328-.415 3.123-1.245.813-.85 1.22-2.017 1.22-3.503v-.26c0-1.487-.397-2.645-1.192-3.475-.795-.849-1.845-1.273-3.15-1.273-1.268 0-2.31.424-3.123 1.273-.795.83-1.192 1.988-1.192 3.474v.26c0 1.487.397 2.655 1.192 3.504.814.83 1.855 1.245 3.122 1.245Zm8.636 4.911V11.315h2.866v2.055h.455c.36-.637.898-1.206 1.617-1.708.738-.502 1.789-.753 3.151-.753 1.173 0 2.242.29 3.207.869.984.579 1.77 1.418 2.356 2.518.606 1.081.909 2.393.909 3.938v.434c0 1.544-.294 2.866-.88 3.966-.587 1.08-1.372 1.91-2.356 2.49a6.265 6.265 0 0 1-3.236.868c-.908 0-1.675-.116-2.299-.347-.625-.232-1.126-.521-1.504-.869a5.402 5.402 0 0 1-.909-1.129h-.454v4.593h-2.923Zm7.238-4.853c1.286 0 2.337-.415 3.15-1.245.814-.83 1.22-2.017 1.22-3.561v-.26c0-1.525-.416-2.703-1.248-3.533-.814-.83-1.855-1.244-3.122-1.244-1.25 0-2.29.415-3.123 1.245-.813.83-1.22 2.007-1.22 3.531v.26c0 1.545.407 2.732 1.22 3.562.833.83 1.874 1.245 3.123 1.245Zm14.717 2.605c-1.779 0-3.255-.405-4.428-1.216-1.173-.81-1.892-2.036-2.157-3.677l2.725-.665c.151.79.407 1.418.766 1.881.36.464.804.792 1.334.985a5.27 5.27 0 0 0 1.76.29c.927 0 1.637-.184 2.129-.55.51-.368.766-.84.766-1.42 0-.578-.236-1.003-.71-1.273-.472-.27-1.173-.492-2.1-.666l-.965-.174a12.34 12.34 0 0 1-2.583-.752c-.776-.328-1.39-.782-1.845-1.361-.454-.58-.68-1.322-.68-2.23 0-1.35.491-2.392 1.475-3.126.984-.752 2.29-1.129 3.917-1.129 1.57 0 2.857.367 3.86 1.1 1.022.714 1.684 1.689 1.987 2.924l-2.725.782c-.17-.869-.53-1.477-1.078-1.824-.55-.367-1.23-.55-2.044-.55-.795 0-1.42.154-1.873.463-.454.29-.681.705-.681 1.245 0 .579.217 1.004.652 1.274.454.27 1.06.473 1.817.608l.993.173c1.003.174 1.92.415 2.753.724.833.309 1.486.753 1.959 1.332.492.579.738 1.35.738 2.316 0 1.428-.52 2.538-1.561 3.329-1.04.791-2.441 1.187-4.2 1.187Zm9.998-.405c-.85 0-1.532-.26-2.043-.782-.492-.521-.738-1.216-.738-2.084V6.595h2.924v4.72h4.172v2.518h-4.172V22.2c0 .579.265.868.794.868h2.924v2.519h-3.86Zm11.537.405c-1.4 0-2.65-.29-3.747-.869a6.544 6.544 0 0 1-2.554-2.547c-.625-1.1-.937-2.403-.937-3.908v-.434c0-1.506.312-2.799.937-3.88a6.544 6.544 0 0 1 2.554-2.547c1.098-.599 2.347-.898 3.747-.898s2.649.3 3.746.898a6.487 6.487 0 0 1 2.583 2.547c.625 1.081.937 2.374.937 3.88v.434c0 1.505-.312 2.808-.937 3.908a6.487 6.487 0 0 1-2.583 2.547c-1.097.58-2.346.869-3.746.869Zm0-2.663c1.287 0 2.327-.415 3.122-1.245.814-.85 1.221-2.017 1.221-3.503v-.26c0-1.487-.398-2.645-1.193-3.475-.794-.849-1.845-1.273-3.15-1.273-1.268 0-2.309.424-3.122 1.273-.795.83-1.193 1.988-1.193 3.474v.26c0 1.487.398 2.655 1.193 3.504.813.83 1.854 1.245 3.122 1.245Zm8.635 2.258V11.315h2.867v1.679h.454c.227-.599.587-1.033 1.079-1.303.51-.29 1.135-.434 1.873-.434h1.675v2.692h-1.789c-.946 0-1.722.27-2.327.81-.606.522-.908 1.332-.908 2.432v8.396h-2.924Zm15.027.405c-1.42 0-2.659-.3-3.719-.898a6.617 6.617 0 0 1-2.498-2.576c-.586-1.12-.879-2.413-.879-3.88v-.347c0-1.486.293-2.779.879-3.879.587-1.12 1.401-1.978 2.441-2.576 1.06-.618 2.281-.927 3.662-.927 1.343 0 2.517.309 3.52.927a6.191 6.191 0 0 1 2.384 2.518c.567 1.081.851 2.345.851 3.793v1.129h-10.757c.038 1.254.445 2.258 1.22 3.01.795.734 1.779 1.1 2.952 1.1 1.098 0 1.921-.25 2.47-.752a5.222 5.222 0 0 0 1.305-1.737l2.413 1.274c-.265.54-.653 1.11-1.164 1.708-.492.598-1.145 1.1-1.958 1.505-.814.405-1.855.608-3.122.608Zm-4.088-9.003h7.749c-.076-1.081-.454-1.92-1.135-2.519-.682-.618-1.571-.926-2.668-.926-1.098 0-1.997.308-2.697.926-.681.598-1.097 1.438-1.249 2.519Z" fill="#fff"/><path fill-rule="evenodd" clip-rule="evenodd" d="M23.139 25.716h3.47c.863 0 1.564-.7 1.564-1.565V12.985a7.823 7.823 0 0 0-2.417-5.654L18.09 0l-7.672 7.33A7.823 7.823 0 0 0 8 12.988V24.15c0 .864.7 1.565 1.565 1.565h3.48l.015-.014-1.185-2.88h-.982V12.775a4.44 4.44 0 0 1 1.37-3.205l5.826-5.566L23.91 9.57a4.433 4.433 0 0 1 1.37 3.204v10.05h-.99l-.01-.01-1.141 2.903Zm-5.03-18.504 3.887 3.485c.607.544.954 1.321.954 2.136v2.737l-3.463-3.174v3.496l-1.435-1.285-1.436 1.286v-3.444l-3.472 3.13v-2.56c0-.805.338-1.573.932-2.116l4.033-3.69Z" fill="#fff"/><path fill-rule="evenodd" clip-rule="evenodd" d="M23.139 25.716h3.47c.863 0 1.564-.7 1.564-1.565V12.985a7.823 7.823 0 0 0-2.417-5.654L18.09 0l-7.672 7.33A7.823 7.823 0 0 0 8 12.988V24.15c0 .864.7 1.565 1.565 1.565h3.48l.015-.014-1.185-2.88h-.982V12.775a4.44 4.44 0 0 1 1.37-3.205l5.826-5.566L23.91 9.57a4.433 4.433 0 0 1 1.37 3.204v10.05h-.99l-.01-.01-1.141 2.903Zm-5.03-18.504 3.887 3.485c.607.544.954 1.321.954 2.136v2.737l-3.463-3.174v3.496l-1.435-1.285-1.436 1.286v-3.444l-3.472 3.13v-2.56c0-.805.338-1.573.932-2.116l4.033-3.69Z" fill="url(#a)"/><path d="M21.996 10.698 18.11 7.212l-4.033 3.691a2.869 2.869 0 0 0-.931 2.116v2.56l3.471-3.13v3.444l1.436-1.286 1.435 1.286v-3.497l3.463 3.175v-2.738c0-.815-.347-1.591-.954-2.135Z" fill="url(#b)"/><path fill-rule="evenodd" clip-rule="evenodd" d="m18.088 20.912 5.041 4.804h.01l1.14-2.901-6.19-5.899-6.203 5.907h-.011l1.184 2.878 5.029-4.789Z" fill="url(#c)"/><defs><linearGradient id="a" x1="18.17" y1=".077" x2="18.172" y2="21.851" gradientUnits="userSpaceOnUse"><stop offset=".245" stop-color="#F81B5D"/><stop offset="1" stop-color="#FF782C"/></linearGradient><linearGradient id="b" x1="18.047" y1="7.212" x2="18.047" y2="15.893" gradientUnits="userSpaceOnUse"><stop stop-color="#FF782C"/><stop offset="1" stop-color="#DF1A62"/></linearGradient><radialGradient id="c" cx="0" cy="0" r="1" gradientUnits="userSpaceOnUse" gradientTransform="matrix(.13038 6.91045 -9.74015 .18377 17.779 17.027)"><stop stop-color="#DC1166"/><stop offset="1" stop-color="#FF782C"/></radialGradient></defs></svg>
